T: Tie The Ribbons
M: 4/4
L: 1/8
K: Emin
|:(3Bcd|e3d B3A|GABG AE E2|G3B dBeB|dBAc BG (2Bcd|
e3d B3A|GABG AE E2|G3B dBeB|dBAc BG G2 ||
|: eaag eggd|(3Bcd ef g3 f|eB B2 gB B2|BAGA BA A2|
eaag eggd|(3Bcd ef g3a|bgaf gfed|(3efg fa g2||
